X:67
T:The Bonny Pit Laddie
Z:Jack Campin, http://www.campin.me.uk/
S:Northumbrian Minstrelsy
M:6/8
L:1/8
K:G
G|cec TB2G|cec dBG|Td3 TB2
G|cec TB2G|cec dBG| c3  G2:|
G|cde  fdf|ece dBG| c3  G2
G|cde  fdf|ece dBG|Tc3  G2:|

